dist/svgs/crypto-icons/icons/sjcx.svg

<?xml version="1.0" encoding="UTF-8" standalone="yes"?>
<svg xmlns="http://www.w3.org/2000/svg" xmlns:xlink="http://www.w3.org/1999/xlink" width="512px" height="512px" viewBox="0 0 384 384" version="1.1">
  <g id="surface1">
    <path style=" stroke:none;fill-rule:nonzero;fill:rgb(0%,0%,0%);fill-opacity:1;" d="M 53.964844 261.027344 C 52.128906 261.03125 50.328125 261.519531 48.738281 262.441406 C 46.320312 263.84375 44.589844 266.101562 43.867188 268.804688 C 43.148438 271.507812 43.523438 274.328125 44.925781 276.746094 C 46.808594 279.980469 50.261719 281.96875 54 281.972656 C 55.839844 281.972656 57.640625 281.484375 59.230469 280.5625 C 64.230469 277.660156 65.9375 271.261719 63.046875 266.257812 C 61.164062 263.023438 57.707031 261.035156 53.964844 261.027344 Z M 202.117188 32.746094 C 202.109375 26.96875 197.425781 22.285156 191.648438 22.277344 C 185.871094 22.285156 181.1875 26.964844 181.179688 32.746094 C 181.183594 38.523438 185.871094 43.210938 191.648438 43.214844 C 197.429688 43.210938 202.113281 38.523438 202.117188 32.746094 Z M 330.019531 123.796875 C 331.824219 123.796875 333.597656 123.324219 335.167969 122.429688 C 337.585938 121.070312 339.363281 118.792969 340.09375 116.113281 C 340.839844 113.4375 340.484375 110.574219 339.109375 108.160156 C 337.242188 104.882812 333.757812 102.855469 329.984375 102.855469 C 326.265625 102.863281 322.828125 104.847656 320.957031 108.066406 C 319.085938 111.28125 319.0625 115.25 320.898438 118.488281 C 322.765625 121.769531 326.246094 123.796875 330.019531 123.796875 Z M 58.820312 103.675781 C 57.242188 102.769531 55.457031 102.292969 53.636719 102.292969 C 49.878906 102.292969 46.40625 104.300781 44.53125 107.558594 C 43.144531 109.964844 42.777344 112.828125 43.515625 115.507812 C 44.234375 118.191406 46 120.472656 48.414062 121.847656 C 49.992188 122.753906 51.777344 123.230469 53.597656 123.234375 C 57.359375 123.230469 60.828125 121.222656 62.703125 117.964844 C 65.566406 112.945312 63.832031 106.554688 58.820312 103.675781 Z M 334.28125 262.996094 C 332.6875 262.058594 330.871094 261.5625 329.019531 261.558594 C 325.292969 261.566406 321.847656 263.542969 319.960938 266.753906 C 317.050781 271.734375 318.738281 278.15625 323.722656 281.074219 C 325.320312 282.007812 327.136719 282.5 328.984375 282.503906 C 332.710938 282.5 336.15625 280.523438 338.042969 277.3125 C 339.453125 274.917969 339.84375 272.058594 339.132812 269.371094 C 338.429688 266.683594 336.683594 264.390625 334.28125 262.996094 Z M 181.148438 350.875 C 181.148438 353.667969 182.234375 356.300781 184.210938 358.277344 C 186.1875 360.257812 188.820312 361.34375 191.613281 361.34375 L 191.617188 361.34375 C 197.394531 361.339844 202.078125 356.660156 202.082031 350.882812 C 202.085938 345.109375 197.390625 340.410156 191.617188 340.410156 C 185.84375 340.410156 181.148438 345.101562 181.148438 350.875 Z M 181.148438 350.875 "/>
    <path style=" stroke:none;fill-rule:nonzero;fill:rgb(0%,0%,0%);fill-opacity:1;" d="M 345.515625 243.753906 C 344.257812 243.03125 342.949219 242.390625 341.601562 241.839844 L 341.601562 143.914062 C 343.171875 143.328125 344.695312 142.628906 346.160156 141.8125 C 361.890625 132.886719 367.414062 112.898438 358.488281 97.171875 C 349.566406 81.4375 329.574219 75.917969 313.84375 84.84375 C 312.664062 85.511719 311.558594 86.269531 310.492188 87.054688 L 224.070312 37.15625 C 224.261719 35.707031 224.398438 34.246094 224.398438 32.746094 C 224.398438 14.660156 209.738281 0 191.648438 0 C 173.566406 0 158.902344 14.660156 158.902344 32.746094 C 158.902344 34.25 159.039062 35.710938 159.234375 37.160156 L 73.410156 86.707031 C 72.289062 85.84375 71.113281 85.054688 69.894531 84.34375 C 54.199219 75.355469 34.1875 80.789062 25.199219 96.488281 C 16.210938 112.179688 21.644531 132.1875 37.34375 141.175781 C 38.761719 141.988281 40.226562 142.644531 41.703125 143.226562 L 41.703125 241.179688 C 40.304688 241.75 38.921875 242.382812 37.578125 243.160156 C 21.929688 252.21875 16.578125 272.253906 25.644531 287.90625 C 34.703125 303.558594 54.738281 308.90625 70.390625 299.839844 C 71.832031 299.011719 73.152344 298.050781 74.417969 297.046875 L 159.265625 346.03125 C 159.027344 347.613281 158.867188 349.222656 158.867188 350.871094 C 158.863281 368.953125 173.523438 383.621094 191.609375 383.621094 C 209.691406 383.628906 224.359375 368.96875 224.359375 350.882812 C 224.359375 349.242188 224.203125 347.644531 223.972656 346.070312 L 308.316406 297.375 C 309.617188 298.4375 310.988281 299.4375 312.488281 300.3125 C 328.101562 309.429688 348.15625 304.167969 357.277344 288.546875 C 366.398438 272.933594 361.132812 252.875 345.515625 243.753906 Z M 350.558594 284.621094 C 346.066406 292.277344 337.859375 296.984375 328.984375 297 C 324.578125 297 320.230469 295.820312 316.410156 293.589844 C 306.703125 287.917969 302.25 276.664062 304.722656 266.242188 L 265.046875 243.070312 C 257.027344 251.175781 245.914062 256.203125 233.644531 256.203125 C 228 256.214844 222.410156 255.140625 217.175781 253.035156 C 211.257812 254.941406 205.097656 255.96875 198.882812 256.085938 L 198.871094 326.992188 C 209.109375 330.113281 216.585938 339.640625 216.578125 350.882812 C 216.578125 364.644531 205.382812 375.839844 191.621094 375.839844 C 184.992188 375.859375 178.632812 373.226562 173.960938 368.527344 C 169.265625 363.855469 166.628906 357.496094 166.652344 350.871094 C 166.652344 339.625 174.132812 330.105469 184.375 326.992188 L 184.390625 254.710938 C 178.960938 253.554688 173.710938 251.6875 168.777344 249.148438 C 165.382812 249.816406 161.933594 250.152344 158.472656 250.148438 C 145.976562 250.148438 134.5 245.78125 125.421875 238.527344 L 78.285156 265.8125 C 80.71875 276.238281 76.222656 287.480469 66.492188 293.109375 C 62.695312 295.308594 58.386719 296.46875 54 296.46875 C 45.089844 296.457031 36.859375 291.714844 32.378906 284.011719 C 29.042969 278.289062 28.140625 271.46875 29.863281 265.070312 C 31.554688 258.667969 35.734375 253.203125 41.476562 249.898438 C 45.269531 247.699219 49.578125 246.539062 53.964844 246.535156 C 60.359375 246.535156 66.417969 249.039062 70.984375 253.285156 L 115.203125 227.695312 C 109.066406 219.035156 105.417969 208.492188 105.417969 197.097656 C 105.417969 182.5 111.363281 169.269531 120.933594 159.671875 L 70.703125 130.902344 C 66.128906 135.203125 60.039062 137.730469 53.597656 137.730469 C 49.265625 137.730469 44.984375 136.585938 41.210938 134.425781 C 35.429688 131.113281 31.273438 125.746094 29.527344 119.308594 C 27.777344 112.871094 28.640625 106.140625 31.953125 100.355469 C 36.417969 92.59375 44.683594 87.804688 53.636719 87.796875 C 57.96875 87.796875 62.25 88.9375 66.023438 91.097656 C 75.777344 96.683594 80.328125 107.90625 77.945312 118.339844 L 133.671875 150.253906 C 140.949219 146.363281 149.042969 144.238281 157.292969 144.050781 C 165.152344 137.539062 174.46875 133.085938 184.398438 130.953125 L 184.398438 56.628906 C 174.160156 53.515625 166.683594 43.992188 166.683594 32.746094 C 166.683594 18.980469 177.882812 7.78125 191.648438 7.78125 C 205.410156 7.78125 216.609375 18.980469 216.609375 32.746094 C 216.609375 43.992188 209.132812 53.515625 198.894531 56.628906 L 198.894531 129.542969 C 217.972656 129.914062 235.054688 138.628906 246.445312 152.394531 L 305.648438 118.804688 C 303.304688 108.363281 307.898438 97.164062 317.679688 91.617188 C 321.429688 89.484375 325.667969 88.363281 329.980469 88.359375 C 338.972656 88.367188 347.265625 93.195312 351.710938 101.007812 C 354.996094 106.761719 355.839844 113.589844 354.058594 119.96875 C 352.316406 126.359375 348.085938 131.789062 342.316406 135.039062 C 338.566406 137.167969 334.328125 138.289062 330.015625 138.292969 C 323.53125 138.292969 317.414062 135.738281 312.832031 131.394531 L 254.335938 164.582031 C 256.070312 168.050781 257.476562 171.671875 258.542969 175.402344 C 270.652344 183.628906 277.898438 197.328125 277.875 211.96875 C 277.875 218.855469 276.246094 225.359375 273.425781 231.179688 L 312.070312 253.75 C 316.628906 249.539062 322.664062 247.0625 329.019531 247.0625 C 333.425781 247.0625 337.773438 248.242188 341.59375 250.476562 C 347.320312 253.800781 351.484375 259.277344 353.148438 265.6875 C 354.847656 272.09375 353.914062 278.910156 350.558594 284.621094 Z M 350.558594 284.621094 "/>
    <path style=" stroke:none;fill-rule:nonzero;fill:rgb(0%,0%,0%);fill-opacity:1;" d="M 241.402344 188.308594 C 241.269531 187.023438 241.078125 185.746094 240.828125 184.476562 C 240.65625 183.589844 240.429688 182.714844 240.203125 181.84375 C 240.121094 181.527344 240.054688 181.203125 239.96875 180.890625 C 239.652344 179.785156 239.292969 178.699219 238.890625 177.621094 L 238.84375 177.484375 C 236.714844 171.773438 233.421875 166.5625 229.171875 162.191406 C 228.21875 161.210938 227.222656 160.273438 226.179688 159.390625 C 226.140625 159.351562 226.101562 159.324219 226.066406 159.289062 C 225.058594 158.433594 224.011719 157.625 222.929688 156.863281 C 222.867188 156.816406 222.800781 156.773438 222.734375 156.726562 C 221.671875 155.984375 220.574219 155.292969 219.445312 154.648438 C 219.359375 154.597656 219.273438 154.550781 219.1875 154.5 C 218.058594 153.867188 216.90625 153.28125 215.726562 152.746094 L 215.453125 152.625 C 214.253906 152.09375 213.035156 151.617188 211.796875 151.191406 C 211.710938 151.167969 211.628906 151.136719 211.546875 151.109375 C 210.269531 150.683594 208.976562 150.316406 207.664062 150.011719 L 207.476562 149.964844 C 206.082031 149.648438 204.671875 149.398438 203.253906 149.21875 C 201.394531 148.960938 199.515625 148.828125 197.636719 148.816406 C 192.121094 148.816406 186.867188 149.886719 182.003906 151.746094 C 181.605469 151.902344 181.210938 152.066406 180.8125 152.230469 C 179.691406 152.695312 178.59375 153.207031 177.519531 153.765625 C 176.945312 154.0625 176.367188 154.359375 175.804688 154.679688 C 174.507812 155.429688 173.253906 156.246094 172.039062 157.121094 C 171.675781 157.378906 171.304688 157.621094 170.953125 157.898438 C 169.679688 158.878906 168.457031 159.929688 167.296875 161.042969 C 166.320312 161.964844 165.386719 162.929688 164.5 163.9375 C 162.511719 163.566406 160.496094 163.375 158.472656 163.371094 C 157.882812 163.371094 157.304688 163.429688 156.722656 163.457031 C 148.902344 163.851562 141.472656 166.96875 135.707031 172.265625 C 135.683594 172.289062 135.65625 172.3125 135.625 172.339844 C 132.777344 174.960938 130.398438 178.054688 128.597656 181.480469 C 128.539062 181.59375 128.492188 181.707031 128.433594 181.816406 C 127.941406 182.785156 127.496094 183.777344 127.097656 184.789062 C 126.976562 185.101562 126.867188 185.417969 126.75 185.742188 C 126.445312 186.585938 126.179688 187.441406 125.945312 188.308594 C 125.835938 188.699219 125.734375 189.082031 125.644531 189.476562 C 125.445312 190.351562 125.28125 191.234375 125.15625 192.121094 C 125.097656 192.5 125.023438 192.867188 124.980469 193.253906 C 124.832031 194.527344 124.753906 195.8125 124.746094 197.09375 C 124.746094 198.179688 124.808594 199.242188 124.910156 200.296875 C 124.941406 200.679688 125.007812 201.042969 125.054688 201.417969 C 125.136719 202.082031 125.230469 202.734375 125.351562 203.378906 C 125.441406 203.84375 125.546875 204.300781 125.652344 204.757812 C 125.894531 205.800781 126.1875 206.832031 126.527344 207.847656 C 126.667969 208.261719 126.820312 208.671875 126.976562 209.074219 C 127.195312 209.648438 127.410156 210.214844 127.65625 210.765625 C 127.765625 211.007812 127.886719 211.238281 128 211.476562 C 131.363281 218.585938 137.105469 224.300781 144.230469 227.636719 C 145.324219 228.152344 146.449219 228.605469 147.59375 228.996094 C 148.640625 229.355469 149.703125 229.65625 150.792969 229.910156 C 150.914062 229.9375 151.03125 229.976562 151.15625 230 C 152.148438 230.21875 153.160156 230.390625 154.183594 230.523438 C 154.390625 230.550781 154.59375 230.59375 154.804688 230.617188 C 156.007812 230.746094 157.230469 230.824219 158.472656 230.824219 C 163.113281 230.824219 167.535156 229.882812 171.5625 228.1875 C 172.515625 228.890625 173.496094 229.554688 174.5 230.179688 C 174.609375 230.246094 174.722656 230.300781 174.828125 230.367188 C 175.753906 230.929688 176.695312 231.460938 177.660156 231.957031 C 177.6875 231.972656 177.71875 231.984375 177.746094 232 C 183.902344 235.160156 190.71875 236.808594 197.636719 236.804688 C 201.59375 236.804688 205.414062 236.246094 209.058594 235.269531 C 209.140625 235.246094 209.21875 235.210938 209.304688 235.191406 C 210.828125 234.769531 212.332031 234.296875 213.785156 233.71875 C 215.351562 233.109375 216.878906 232.40625 218.359375 231.613281 C 222.722656 235.027344 228.101562 236.878906 233.640625 236.878906 C 235.027344 236.867188 236.410156 236.746094 237.777344 236.507812 C 238.84375 236.339844 239.898438 236.097656 240.9375 235.789062 C 241.996094 235.460938 243.027344 235.058594 244.03125 234.589844 C 244.207031 234.507812 244.375 234.425781 244.546875 234.339844 C 245.511719 233.875 246.449219 233.347656 247.347656 232.757812 C 247.351562 232.753906 247.359375 232.75 247.367188 232.75 C 251.539062 229.988281 254.785156 226.035156 256.6875 221.40625 C 256.6875 221.40625 256.6875 221.402344 256.691406 221.402344 C 257.285156 219.953125 257.75 218.433594 258.0625 216.863281 C 258.09375 216.714844 258.105469 216.566406 258.132812 216.417969 C 258.246094 215.777344 258.359375 215.128906 258.421875 214.460938 C 258.507812 213.644531 258.550781 212.8125 258.550781 211.96875 C 258.550781 200.921875 251.355469 191.570312 241.402344 188.308594 Z M 241.402344 188.308594 "/>
  </g>
</svg>

<svg xmlns="http://www.w3.org/2000/svg" viewBox="0 0 384 384"><path d="M53.965 261.027a10.46 10.46 0 00-5.227 1.414 10.418 10.418 0 00-4.87 6.364 10.398 10.398 0 001.058 7.941A10.51 10.51 0 0054 281.973c1.84 0 3.64-.489 5.23-1.41 5-2.903 6.708-9.301 3.817-14.305a10.53 10.53 0 00-9.082-5.23zm148.152-228.28c-.008-5.778-4.691-10.462-10.469-10.47-5.777.008-10.46 4.688-10.468 10.47.004 5.776 4.691 10.464 10.468 10.468 5.782-.004 10.465-4.692 10.47-10.469zm127.903 91.05c1.804 0 3.578-.473 5.148-1.367a10.383 10.383 0 004.926-6.317c.746-2.675.39-5.539-.985-7.953a10.505 10.505 0 00-9.125-5.305 10.47 10.47 0 00-9.027 5.211 10.462 10.462 0 00-.059 10.422 10.495 10.495 0 009.122 5.309zm-271.2-20.121a10.403 10.403 0 00-5.183-1.383c-3.758 0-7.23 2.008-9.106 5.266a10.393 10.393 0 00-1.015 7.949 10.392 10.392 0 004.898 6.34 10.448 10.448 0 005.184 1.386 10.514 10.514 0 009.105-5.27c2.863-5.019 1.129-11.41-3.883-14.288zm275.461 159.32a10.421 10.421 0 00-5.261-1.437 10.533 10.533 0 00-9.06 5.195c-2.91 4.98-1.222 11.402 3.763 14.32a10.474 10.474 0 005.261 1.43 10.521 10.521 0 009.059-5.192 10.404 10.404 0 001.09-7.94 10.42 10.42 0 00-4.852-6.376zm-153.133 87.879a10.4 10.4 0 003.063 7.402 10.391 10.391 0 007.402 3.067h.004c5.778-.004 10.461-4.684 10.465-10.461.004-5.774-4.691-10.473-10.465-10.473-5.773 0-10.469 4.692-10.469 10.465zm0 0"/><path d="M345.516 243.754a32.676 32.676 0 00-3.914-1.914v-97.926a33.186 33.186 0 004.558-2.101c15.73-8.926 21.254-28.915 12.328-44.641-8.922-15.734-28.914-21.254-44.644-12.328-1.18.668-2.285 1.426-3.352 2.21L224.07 37.157c.192-1.449.328-2.91.328-4.41C224.398 14.66 209.738 0 191.648 0c-18.082 0-32.746 14.66-32.746 32.746 0 1.504.137 2.965.332 4.414L73.41 86.707a33.097 33.097 0 00-3.515-2.363c-15.696-8.989-35.707-3.555-44.696 12.144-8.988 15.692-3.554 35.7 12.145 44.688 1.418.812 2.883 1.469 4.36 2.05v97.954c-1.4.57-2.782 1.203-4.126 1.98-15.648 9.059-21 29.094-11.933 44.746 9.058 15.653 29.093 21 44.746 11.934 1.441-.828 2.761-1.79 4.027-2.793l84.848 48.984c-.239 1.582-.399 3.192-.399 4.84-.004 18.082 14.656 32.75 32.742 32.75 18.082.008 32.75-14.652 32.75-32.738 0-1.64-.156-3.238-.386-4.813l84.343-48.695c1.301 1.063 2.672 2.063 4.172 2.938 15.614 9.117 35.668 3.855 44.79-11.766 9.12-15.613 3.855-35.672-11.762-44.793zm5.043 40.867A25.064 25.064 0 01328.984 297c-4.406 0-8.754-1.18-12.574-3.41-9.707-5.672-14.16-16.926-11.687-27.348l-39.676-23.172c-8.02 8.106-19.133 13.133-31.402 13.133a43.877 43.877 0 01-16.47-3.168 63.558 63.558 0 01-18.292 3.05l-.012 70.907c10.238 3.121 17.715 12.649 17.707 23.89 0 13.763-11.195 24.958-24.957 24.958a24.798 24.798 0 01-17.66-7.313 24.791 24.791 0 01-7.309-17.656c0-11.246 7.48-20.766 17.723-23.879l.016-72.281a62.607 62.607 0 01-15.614-5.563 53.047 53.047 0 01-10.304 1c-12.496 0-23.973-4.367-33.051-11.62l-47.137 27.285c2.434 10.425-2.062 21.667-11.793 27.296A24.925 24.925 0 0154 296.47a25.048 25.048 0 01-21.621-12.457 24.803 24.803 0 01-2.516-18.942 24.819 24.819 0 0111.614-15.172 24.943 24.943 0 0112.488-3.363c6.394 0 12.453 2.504 17.02 6.75l44.218-25.59c-6.137-8.66-9.785-19.203-9.785-30.597 0-14.598 5.945-27.828 15.516-37.426l-50.23-28.77c-4.575 4.301-10.665 6.828-17.106 6.828a24.972 24.972 0 01-12.387-3.304c-5.781-3.313-9.938-8.68-11.684-15.117-1.75-6.438-.886-13.168 2.426-18.954a25.041 25.041 0 0121.684-12.558c4.332 0 8.613 1.14 12.386 3.3 9.754 5.587 14.305 16.81 11.922 27.243l55.727 31.914a52.644 52.644 0 0123.621-6.203c7.86-6.512 17.176-10.965 27.105-13.098V56.63c-10.238-3.113-17.714-12.637-17.714-23.883 0-13.766 11.199-24.965 24.964-24.965 13.762 0 24.961 11.2 24.961 24.965 0 11.246-7.476 20.77-17.714 23.883v72.914c19.078.371 36.16 9.086 47.55 22.852l59.203-33.59c-2.343-10.442 2.25-21.64 12.032-27.188a24.925 24.925 0 0112.3-3.258 25.024 25.024 0 0121.73 12.649 24.793 24.793 0 012.349 18.96 24.78 24.78 0 01-11.743 15.071 24.962 24.962 0 01-12.3 3.254c-6.485 0-12.602-2.555-17.184-6.898l-58.496 33.187a62.757 62.757 0 014.207 10.82 44.127 44.127 0 0119.332 36.567c0 6.886-1.629 13.39-4.45 19.21l38.645 22.571c4.559-4.21 10.594-6.688 16.95-6.688 4.406 0 8.753 1.18 12.574 3.415a24.797 24.797 0 0111.554 15.21 24.815 24.815 0 01-2.59 18.934zm0 0"/><path d="M241.402 188.309a42.36 42.36 0 00-.574-3.832 42.681 42.681 0 00-.625-2.633c-.082-.317-.148-.64-.234-.953a43.827 43.827 0 00-1.078-3.27l-.047-.137a43.973 43.973 0 00-9.672-15.293 42.222 42.222 0 00-2.992-2.8c-.04-.04-.078-.067-.114-.102a43.858 43.858 0 00-3.136-2.426c-.063-.047-.13-.09-.196-.136a42.77 42.77 0 00-3.289-2.079c-.086-.05-.172-.097-.257-.148a45.613 45.613 0 00-3.461-1.754l-.274-.121a45.74 45.74 0 00-3.656-1.434c-.086-.023-.168-.054-.25-.082a43.064 43.064 0 00-3.883-1.097l-.187-.047a44.213 44.213 0 00-4.223-.746 42.87 42.87 0 00-5.617-.403c-5.516 0-10.77 1.07-15.633 2.93-.399.156-.793.32-1.191.484a42.015 42.015 0 00-3.293 1.536c-.575.297-1.153.593-1.715.914a44.93 44.93 0 00-3.766 2.441c-.363.258-.734.5-1.086.777a44.442 44.442 0 00-3.656 3.145 43.46 43.46 0 00-2.797 2.894 33.188 33.188 0 00-6.027-.566c-.59 0-1.168.059-1.75.086a33.558 33.558 0 00-21.016 8.809 33.807 33.807 0 00-7.11 9.215c-.058.113-.105.226-.163.335-.493.97-.938 1.961-1.336 2.973-.121.313-.23.629-.348.953-.305.844-.57 1.7-.805 2.567-.11.39-.21.773-.3 1.168-.2.875-.364 1.757-.489 2.644-.058.379-.133.746-.176 1.133a35.053 35.053 0 00-.234 3.84 33.3 33.3 0 00.164 3.203c.031.383.098.746.145 1.121.082.664.175 1.316.297 1.96.09.466.195.923.3 1.38.243 1.043.535 2.074.875 3.09.141.414.293.824.45 1.226.218.574.433 1.14.68 1.692.109.242.23.472.343.71a33.817 33.817 0 0019.594 17.52c1.047.36 2.11.66 3.199.914.121.028.238.067.363.09.992.219 2.004.39 3.028.523.207.028.41.07.62.094 1.204.13 2.426.207 3.669.207 4.64 0 9.062-.941 13.09-2.637a45.093 45.093 0 002.937 1.993c.11.066.223.12.328.187a45.66 45.66 0 002.832 1.59c.028.016.059.027.086.043a43.497 43.497 0 0019.89 4.805c3.958 0 7.778-.559 11.423-1.535.082-.024.16-.06.246-.079 1.523-.421 3.027-.894 4.48-1.472a41.734 41.734 0 004.574-2.106 24.794 24.794 0 0015.282 5.266 25.328 25.328 0 004.136-.371 24.478 24.478 0 003.16-.719 24.35 24.35 0 003.61-1.45 24.402 24.402 0 002.8-1.581.03.03 0 01.02-.008 24.999 24.999 0 009.32-11.344s0-.004.004-.004a24.688 24.688 0 001.372-4.539c.03-.148.042-.297.07-.445.113-.64.226-1.29.289-1.957.086-.816.129-1.649.129-2.492 0-11.047-7.196-20.399-17.149-23.66zm0 0"/></svg>
